src/Assets/Icons/HomeScreen/DataManagementComponent/titleIcon1.svg

<svg width="84" height="69" viewBox="0 0 84 69" fill="none" xmlns="http://www.w3.org/2000/svg">
<path d="M31.5001 2.22655C23.5001 0.626548 14.1668 7.89322 10.5001 11.7265C11.8334 10.5404 13.5001 9.27973 9.50009 13.7266C4.50009 19.2851 3.50009 36.2266 4.00009 44.2266C4.50009 52.2266 20.0001 63.7266 33.5001 64.2266C47.0001 64.7266 65.5001 70.2266 76.0001 56.7266C86.5001 43.2266 75.0001 29.7266 71.5001 29.2266C68.0001 28.7266 67.0001 26.7266 59.0001 16.2266C51.0001 5.72656 41.5001 4.22655 31.5001 2.22655Z" fill="#0000FF"/>
<path d="M66.8294 24.0791C62.5292 10.1312 49.5279 0 34.175 0C15.2974 0 0 15.2974 0 34.17C0 53.0426 15.3025 68.3501 34.175 68.3501H61.5523C73.9494 68.3501 84 58.2995 84 45.9024C84 35.3281 76.6836 26.4508 66.8294 24.0842V24.0791ZM39.1349 12.6488C43.0977 12.6488 46.3103 15.8614 46.3103 19.8242C46.3103 23.7871 43.0977 26.9996 39.1349 26.9996C35.172 26.9996 31.9595 23.7871 31.9595 19.8242C31.9595 15.8614 35.172 12.6488 39.1349 12.6488ZM27.1809 55.6912C25.202 55.6912 23.5957 54.0849 23.5957 52.106C23.5957 50.1271 25.202 48.5208 27.1809 48.5208C29.1598 48.5208 30.7661 50.1271 30.7661 52.106C30.7661 54.0849 29.1598 55.6912 27.1809 55.6912ZM39.1349 55.6912C37.1509 55.6912 35.5497 54.0849 35.5497 52.106C35.5497 50.1271 37.156 48.5208 39.1349 48.5208C41.1138 48.5208 42.7201 50.1271 42.7201 52.106C42.7201 54.0849 41.1138 55.6912 39.1349 55.6912ZM51.0939 55.6912C49.115 55.6912 47.5087 54.0849 47.5087 52.106C47.5087 50.1271 49.115 48.5208 51.0939 48.5208C53.0728 48.5208 54.6791 50.1271 54.6791 52.106C54.6791 54.0849 53.0728 55.6912 51.0939 55.6912ZM49.8955 43.7372H28.3743C25.7307 43.7372 23.5907 41.5972 23.5907 38.9536C23.5907 34.9908 26.8033 31.7782 30.7661 31.7782H47.5037C51.4665 31.7782 54.6791 34.9908 54.6791 38.9536C54.6791 41.5921 52.539 43.7372 49.8955 43.7372Z" fill="white"/>
</svg>

<svg xmlns="http://www.w3.org/2000/svg" width="84" height="69" fill="none"><path fill="#00F" d="M31.5 2.227c-8-1.6-17.333 5.666-21 9.5 1.333-1.187 3-2.447-1 2-5 5.558-6 22.5-5.5 30.5s16 19.5 29.5 20 32 6 42.5-7.5-1-27-4.5-27.5-4.5-2.5-12.5-13-17.5-12-27.5-14"/><path fill="#fff" d="M66.83 24.08C62.53 10.13 49.527 0 34.174 0 15.297 0 0 15.297 0 34.17s15.303 34.18 34.175 34.18h27.377C73.95 68.35 84 58.3 84 45.902c0-10.574-7.316-19.451-17.17-21.818zM39.134 12.648a7.175 7.175 0 1 1 0 14.35 7.175 7.175 0 0 1 0-14.35M27.18 55.69a3.587 3.587 0 0 1-3.585-3.585 3.587 3.587 0 0 1 3.585-3.585 3.587 3.587 0 0 1 3.585 3.585 3.587 3.587 0 0 1-3.585 3.585m11.954 0a3.583 3.583 0 0 1-3.585-3.585 3.587 3.587 0 0 1 3.585-3.585 3.587 3.587 0 0 1 3.585 3.585 3.587 3.587 0 0 1-3.585 3.585m11.959 0a3.587 3.587 0 0 1-3.585-3.585 3.587 3.587 0 0 1 3.585-3.585 3.587 3.587 0 0 1 3.585 3.585 3.587 3.587 0 0 1-3.585 3.585m-1.199-11.954h-21.52a4.78 4.78 0 0 1-4.784-4.783 7.175 7.175 0 0 1 7.175-7.176h16.738a7.175 7.175 0 0 1 7.175 7.176 4.785 4.785 0 0 1-4.784 4.783"/></svg>
